<?xml version="1.0" encoding="UTF-8"?>
<map version="1.10" tiledversion="1.12.2" orientation="orthogonal" renderorder="right-down" width="45" height="29" tilewidth="32" tileheight="32" infinite="0" nextlayerid="6" nextobjectid="85">
 <layer id="1" name="Calque de Tuiles 1" width="45" height="29">
  <data encoding="csv">
0,0,0,0,0,0,0,0,0,0,0,0,0,0,0,0,0,0,0,0,0,0,0,0,0,0,0,0,0,0,0,0,0,0,0,0,0,0,0,0,0,0,0,0,0,
0,0,0,0,0,0,0,0,0,0,0,0,0,0,0,0,0,0,0,0,0,0,0,0,0,0,0,0,0,0,0,0,0,0,0,0,0,0,0,0,0,0,0,0,0,
0,0,0,0,0,0,0,0,0,0,0,0,0,0,0,0,0,0,0,0,0,0,0,0,0,0,0,0,0,0,0,0,0,0,0,0,0,0,0,0,0,0,0,0,0,
0,0,0,0,0,0,0,0,0,0,0,0,0,0,0,0,0,0,0,0,0,0,0,0,0,0,0,0,0,0,0,0,0,0,0,0,0,0,0,0,0,0,0,0,0,
0,0,0,0,0,0,0,0,0,0,0,0,0,0,0,0,0,0,0,0,0,0,0,0,0,0,0,0,0,0,0,0,0,0,0,0,0,0,0,0,0,0,0,0,0,
0,0,0,0,0,0,0,0,0,0,0,0,0,0,0,0,0,0,0,0,0,0,0,0,0,0,0,0,0,0,0,0,0,0,0,0,0,0,0,0,0,0,0,0,0,
0,0,0,0,0,0,0,0,0,0,0,0,0,0,0,0,0,0,0,0,0,0,0,0,0,0,0,0,0,0,0,0,0,0,0,0,0,0,0,0,0,0,0,0,0,
0,0,0,0,0,0,0,0,0,0,0,0,0,0,0,0,0,0,0,0,0,0,0,0,0,0,0,0,0,0,0,0,0,0,0,0,0,0,0,0,0,0,0,0,0,
0,0,0,0,0,0,0,0,0,0,0,0,0,0,0,0,0,0,0,0,0,0,0,0,0,0,0,0,0,0,0,0,0,0,0,0,0,0,0,0,0,0,0,0,0,
0,0,0,0,0,0,0,0,0,0,0,0,0,0,0,0,0,0,0,0,0,0,0,0,0,0,0,0,0,0,0,0,0,0,0,0,0,0,0,0,0,0,0,0,0,
0,0,0,0,0,0,0,0,0,0,0,0,0,0,0,0,0,0,0,0,0,0,0,0,0,0,0,0,0,0,0,0,0,0,0,0,0,0,0,0,0,0,0,0,0,
0,0,0,0,0,0,0,0,0,0,0,0,0,0,0,0,0,0,0,0,0,0,0,0,0,0,0,0,0,0,0,0,0,0,0,0,0,0,0,0,0,0,0,0,0,
0,0,0,0,0,0,0,0,0,0,0,0,0,0,0,0,0,0,0,0,0,0,0,0,0,0,0,0,0,0,0,0,0,0,0,0,0,0,0,0,0,0,0,0,0,
0,0,0,0,0,0,0,0,0,0,0,0,0,0,0,0,0,0,0,0,0,0,0,0,0,0,0,0,0,0,0,0,0,0,0,0,0,0,0,0,0,0,0,0,0,
0,0,0,0,0,0,0,0,0,0,0,0,0,0,0,0,0,0,0,0,0,0,0,0,0,0,0,0,0,0,0,0,0,0,0,0,0,0,0,0,0,0,0,0,0,
0,0,0,0,0,0,0,0,0,0,0,0,0,0,0,0,0,0,0,0,0,0,0,0,0,0,0,0,0,0,0,0,0,0,0,0,0,0,0,0,0,0,0,0,0,
0,0,0,0,0,0,0,0,0,0,0,0,0,0,0,0,0,0,0,0,0,0,0,0,0,0,0,0,0,0,0,0,0,0,0,0,0,0,0,0,0,0,0,0,0,
0,0,0,0,0,0,0,0,0,0,0,0,0,0,0,0,0,0,0,0,0,0,0,0,0,0,0,0,0,0,0,0,0,0,0,0,0,0,0,0,0,0,0,0,0,
0,0,0,0,0,0,0,0,0,0,0,0,0,0,0,0,0,0,0,0,0,0,0,0,0,0,0,0,0,0,0,0,0,0,0,0,0,0,0,0,0,0,0,0,0,
0,0,0,0,0,0,0,0,0,0,0,0,0,0,0,0,0,0,0,0,0,0,0,0,0,0,0,0,0,0,0,0,0,0,0,0,0,0,0,0,0,0,0,0,0,
0,0,0,0,0,0,0,0,0,0,0,0,0,0,0,0,0,0,0,0,0,0,0,0,0,0,0,0,0,0,0,0,0,0,0,0,0,0,0,0,0,0,0,0,0,
0,0,0,0,0,0,0,0,0,0,0,0,0,0,0,0,0,0,0,0,0,0,0,0,0,0,0,0,0,0,0,0,0,0,0,0,0,0,0,0,0,0,0,0,0,
0,0,0,0,0,0,0,0,0,0,0,0,0,0,0,0,0,0,0,0,0,0,0,0,0,0,0,0,0,0,0,0,0,0,0,0,0,0,0,0,0,0,0,0,0,
0,0,0,0,0,0,0,0,0,0,0,0,0,0,0,0,0,0,0,0,0,0,0,0,0,0,0,0,0,0,0,0,0,0,0,0,0,0,0,0,0,0,0,0,0,
0,0,0,0,0,0,0,0,0,0,0,0,0,0,0,0,0,0,0,0,0,0,0,0,0,0,0,0,0,0,0,0,0,0,0,0,0,0,0,0,0,0,0,0,0,
0,0,0,0,0,0,0,0,0,0,0,0,0,0,0,0,0,0,0,0,0,0,0,0,0,0,0,0,0,0,0,0,0,0,0,0,0,0,0,0,0,0,0,0,0,
0,0,0,0,0,0,0,0,0,0,0,0,0,0,0,0,0,0,0,0,0,0,0,0,0,0,0,0,0,0,0,0,0,0,0,0,0,0,0,0,0,0,0,0,0,
0,0,0,0,0,0,0,0,0,0,0,0,0,0,0,0,0,0,0,0,0,0,0,0,0,0,0,0,0,0,0,0,0,0,0,0,0,0,0,0,0,0,0,0,0,
0,0,0,0,0,0,0,0,0,0,0,0,0,0,0,0,0,0,0,0,0,0,0,0,0,0,0,0,0,0,0,0,0,0,0,0,0,0,0,0,0,0,0,0,0
</data>
 </layer>
 <imagelayer id="2" name="Background" locked="1">
  <image source="place-centrale.png" width="1350" height="900"/>
 </imagelayer>
 <objectgroup id="4" name="Collisions">
  <object id="1" x="587.49" y="175.273"/>
  <object id="2" x="580.999" y="149.307"/>
  <object id="3" x="576" y="74" width="20" height="50"/>
  <object id="4" x="604" y="82" width="2"/>
  <object id="5" x="618" y="68"/>
  <object id="6" x="638" y="56"/>
  <object id="7" x="656" y="54" width="2"/>
  <object id="8" x="676" y="54" height="2"/>
  <object id="9" x="702" y="74" width="2" height="4"/>
  <object id="10" x="730" y="90"/>
  <object id="11" x="734" y="96"/>
  <object id="12" x="736" y="100" width="2" height="4"/>
  <object id="13" x="740" y="112" height="2"/>
  <object id="14" x="742" y="122" height="4"/>
  <object id="15" x="742" y="144"/>
  <object id="16" x="742" y="154" height="10"/>
  <object id="17" x="742" y="178" height="2"/>
  <object id="18" x="1268" y="16" width="60" height="302"/>
  <object id="19" x="652" y="4" width="624" height="148"/>
  <object id="20" x="6" y="2" width="1034" height="194"/>
  <object id="21" x="6" y="178" width="346" height="106"/>
  <object id="22" x="10" y="810" width="584" height="116"/>
  <object id="23" x="776" y="822" width="668" height="110"/>
  <object id="24" x="1210" y="554" width="134" height="256"/>
  <object id="25" x="1248" y="326" width="92" height="210"/>
  <object id="26" x="1050" y="162" width="222" height="62"/>
  <object id="27" x="1206" y="220" width="38" height="158"/>
  <object id="28" x="1238" y="220" width="36" height="106"/>
  <object id="29" x="1208" y="428"/>
  <object id="30" x="1190" y="438"/>
  <object id="31" x="1168" y="442"/>
  <object id="32" x="1126" y="442"/>
  <object id="33" x="1156" y="440"/>
  <object id="34" x="1110" y="440"/>
  <object id="35" x="1088" y="434"/>
  <object id="36" x="1076" y="420"/>
  <object id="37" x="1091" y="411"/>
  <object id="38" x="1098" y="402"/>
  <object id="39" x="1108" y="393" width="1" height="1"/>
  <object id="40" x="1129" y="382" height="1"/>
  <object id="41" x="1140" y="378" width="1"/>
  <object id="42" x="1154" y="393" width="2" height="2"/>
  <object id="43" x="1175" y="406" width="1" height="1"/>
  <object id="44" x="1180" y="411"/>
  <object id="45" x="1160" y="416"/>
  <object id="46" x="1069" y="398" width="68" height="19"/>
  <object id="47" x="1067" y="398" width="145" height="56"/>
  <object id="48" x="858" y="260" width="2"/>
  <object id="49" x="881" y="271"/>
  <object id="50" x="863" y="271"/>
  <object id="51" x="840" y="250" width="39" height="12"/>
  <object id="52" x="932" y="201" width="42" height="30"/>
  <object id="53" x="894" y="227" width="36" height="20"/>
  <object id="54" x="867" y="239" width="33" height="27"/>
  <object id="55" x="801" y="196" width="172" height="32"/>
  <object id="56" x="992" y="258" width="30" height="56"/>
  <object id="57" x="1007" y="186" width="101" height="119"/>
  <object id="58" x="1103" y="381" width="117" height="19"/>
  <object id="59" x="1154" y="301" width="43" height="81"/>
  <object id="60" x="366" y="176" width="126" height="98"/>
  <object id="61" x="723" y="759" width="45" height="19"/>
  <object id="62" x="734" y="775" width="55" height="67"/>
  <object id="63" x="786" y="762" width="348" height="53"/>
  <object id="64" x="787" y="729" width="187" height="25"/>
  <object id="65" x="802" y="695" width="38" height="33"/>
  <object id="66" x="832" y="675" width="71" height="52"/>
  <object id="67" x="558" y="742" width="58" height="66"/>
  <object id="68" x="436" y="677" width="124" height="89"/>
  <object id="69" x="300" y="769" width="255" height="36"/>
  <object id="71" x="-14" y="278" width="141" height="531"/>
  <object id="72" x="67" y="395" width="221" height="63"/>
  <object id="73" x="92" y="333" width="136" height="54"/>
  <object id="74" x="273" y="251" width="99" height="64"/>
  <object id="75" x="497" y="189" width="110" height="95"/>
  <object id="76" x="719" y="194" width="81" height="94"/>
  <object id="77" x="536" y="258"/>
  <object id="78" x="111" y="506" width="146" height="60"/>
  <object id="79" x="125" y="558" width="224" height="48"/>
  <object id="80" x="102" y="579" width="329" height="179"/>
  <object id="81" x="102" y="744" width="235" height="66"/>
  <object id="82" x="1081" y="510" width="218" height="124"/>
  <object id="83" x="913" y="579" width="427" height="239"/>
 </objectgroup>
 <objectgroup id="5" name="player_spawn">
  <object id="84" x="669.333" y="472">
   <point/>
  </object>
 </objectgroup>
</map>
